static/img/kroki/4562ba2481fde35db972c22f0bad1ca2.svg

<?xml version="1.0" encoding="us-ascii" standalone="no"?><svg xmlns="http://www.w3.org/2000/svg" xmlns:xlink="http://www.w3.org/1999/xlink" contentStyleType="text/css" height="352px" preserveAspectRatio="none" style="width:466px;height:352px;" version="1.1" viewBox="0 0 466 352" width="466px" zoomAndPan="magnify"><defs/><g><!--class digitalocean_container_registry--><g id="elem_digitalocean_container_registry"><rect codeLine="22" fill="#3D176E" height="39.7891" id="digitalocean_container_registry" rx="2.5" ry="2.5" style="stroke:#000D19;stroke-width:0.5;" width="304" x="7" y="206.58"/><ellipse cx="22" cy="226.4745" fill="#ADD1B2" rx="11" ry="11" style="stroke:#181818;stroke-width:1.0;"/><path d="M24.9688,232.1152 Q24.3906,232.412 23.75,232.5527 Q23.1094,232.7089 22.4063,232.7089 Q19.9063,232.7089 18.5781,231.0683 Q17.2656,229.412 17.2656,226.287 Q17.2656,223.162 18.5781,221.5058 Q19.9063,219.8495 22.4063,219.8495 Q23.1094,219.8495 23.75,220.0058 Q24.4063,220.162 24.9688,220.4589 L24.9688,223.1777 Q24.3438,222.5995 23.75,222.3339 Q23.1563,222.0527 22.5313,222.0527 Q21.1875,222.0527 20.5,223.1308 Q19.8125,224.1933 19.8125,226.287 Q19.8125,228.3808 20.5,229.4589 Q21.1875,230.5214 22.5313,230.5214 Q23.1563,230.5214 23.75,230.2558 Q24.3438,229.9745 24.9688,229.3964 L24.9688,232.1152 Z " fill="#000000"/><text fill="#D9B8FF" font-family="Helvetica" font-size="17" lengthAdjust="spacing" textLength="262" x="41" y="232.3598">digitalocean_container_registry</text></g><!--class digitalocean_container_registry_repository--><g id="elem_digitalocean_container_registry_repository"><rect codeLine="24" fill="#3D176E" height="39.7891" id="digitalocean_container_registry_repository" rx="2.5" ry="2.5" style="stroke:#000D19;stroke-width:0.5;" width="397" x="62.5" y="306.37"/><ellipse cx="77.5" cy="326.2645" fill="#ADD1B2" rx="11" ry="11" style="stroke:#181818;stroke-width:1.0;"/><path d="M80.4688,331.9052 Q79.8906,332.202 79.25,332.3427 Q78.6094,332.4989 77.9063,332.4989 Q75.4063,332.4989 74.0781,330.8583 Q72.7656,329.202 72.7656,326.077 Q72.7656,322.952 74.0781,321.2958 Q75.4063,319.6395 77.9063,319.6395 Q78.6094,319.6395 79.25,319.7958 Q79.9063,319.952 80.4688,320.2489 L80.4688,322.9677 Q79.8438,322.3895 79.25,322.1239 Q78.6563,321.8427 78.0313,321.8427 Q76.6875,321.8427 76,322.9208 Q75.3125,323.9833 75.3125,326.077 Q75.3125,328.1708 76,329.2489 Q76.6875,330.3114 78.0313,330.3114 Q78.6563,330.3114 79.25,330.0458 Q79.8438,329.7645 80.4688,329.1864 L80.4688,331.9052 Z " fill="#000000"/><text fill="#D9B8FF" font-family="Helvetica" font-size="17" lengthAdjust="spacing" textLength="355" x="96.5" y="332.1498">digitalocean_container_registry_repository</text></g><!--class digitalocean_region--><g id="elem_digitalocean_region"><rect codeLine="26" fill="#3D176E" height="39.7891" id="digitalocean_region" rx="2.5" ry="2.5" style="stroke:#000D19;stroke-width:0.5;" width="205" x="106.5" y="106.79"/><ellipse cx="121.5" cy="126.6845" fill="#ADD1B2" rx="11" ry="11" style="stroke:#181818;stroke-width:1.0;"/><path d="M124.4688,132.3252 Q123.8906,132.622 123.25,132.7627 Q122.6094,132.9189 121.9063,132.9189 Q119.4063,132.9189 118.0781,131.2783 Q116.7656,129.622 116.7656,126.497 Q116.7656,123.372 118.0781,121.7158 Q119.4063,120.0595 121.9063,120.0595 Q122.6094,120.0595 123.25,120.2158 Q123.9063,120.372 124.4688,120.6689 L124.4688,123.3877 Q123.8438,122.8095 123.25,122.5439 Q122.6563,122.2627 122.0313,122.2627 Q120.6875,122.2627 120,123.3408 Q119.3125,124.4033 119.3125,126.497 Q119.3125,128.5908 120,129.6689 Q120.6875,130.7314 122.0313,130.7314 Q122.6563,130.7314 123.25,130.4658 Q123.8438,130.1845 124.4688,129.6064 L124.4688,132.3252 Z " fill="#000000"/><text fill="#D9B8FF" font-family="Helvetica" font-size="17" lengthAdjust="spacing" textLength="163" x="140.5" y="132.5698">digitalocean_region</text></g><!--class digitalocean_team--><g id="elem_digitalocean_team"><rect codeLine="28" fill="#3D176E" height="39.7891" id="digitalocean_team" rx="2.5" ry="2.5" style="stroke:#000D19;stroke-width:0.5;" width="196" x="111" y="7"/><ellipse cx="126" cy="26.8945" fill="#ADD1B2" rx="11" ry="11" style="stroke:#181818;stroke-width:1.0;"/><path d="M128.9688,32.5352 Q128.3906,32.832 127.75,32.9727 Q127.1094,33.1289 126.4063,33.1289 Q123.9063,33.1289 122.5781,31.4883 Q121.2656,29.832 121.2656,26.707 Q121.2656,23.582 122.5781,21.9258 Q123.9063,20.2695 126.4063,20.2695 Q127.1094,20.2695 127.75,20.4258 Q128.4063,20.582 128.9688,20.8789 L128.9688,23.5977 Q128.3438,23.0195 127.75,22.7539 Q127.1563,22.4727 126.5313,22.4727 Q125.1875,22.4727 124.5,23.5508 Q123.8125,24.6133 123.8125,26.707 Q123.8125,28.8008 124.5,29.8789 Q125.1875,30.9414 126.5313,30.9414 Q127.1563,30.9414 127.75,30.6758 Q128.3438,30.3945 128.9688,29.8164 L128.9688,32.5352 Z " fill="#000000"/><text fill="#D9B8FF" font-family="Helvetica" font-size="17" lengthAdjust="spacing" textLength="154" x="145" y="32.7798">digitalocean_team</text></g><!--link digitalocean_container_registry to digitalocean_container_registry_repository--><g id="link_digitalocean_container_registry_digitalocean_container_registry_repository"><path codeLine="30" d="M179.15,246.8 C195.64,262.6 219.01,285.01 236.56,301.84 " fill="none" id="digitalocean_container_registry-to-digitalocean_container_registry_repository" style="stroke:#1A83AF;stroke-width:2.0;"/><polygon fill="#1A83AF" points="239.89,304.99,236.1511,295.8784,236.2768,301.5339,230.6213,301.6596,239.89,304.99" style="stroke:#1A83AF;stroke-width:2.0;"/></g><!--link digitalocean_region to digitalocean_container_registry--><g id="link_digitalocean_region_digitalocean_container_registry"><path codeLine="31" d="M199.12,147.01 C191.18,162.54 179.97,184.46 171.42,201.19 " fill="none" id="digitalocean_region-to-digitalocean_container_registry" style="stroke:#1A83AF;stroke-width:2.0;"/><polygon fill="#1A83AF" points="168.86,205.2,176.5184,199.0074,171.1361,200.7481,169.3954,195.3657,168.86,205.2" style="stroke:#1A83AF;stroke-width:2.0;"/></g><!--link digitalocean_team to digitalocean_container_registry--><g id="link_digitalocean_team_digitalocean_container_registry"><path codeLine="32" d="M158.51,47.18 C132.75,59.91 103.79,79.36 89,106.79 C70.68,140.77 103.27,179.07 129.86,202.74 " fill="none" id="digitalocean_team-to-digitalocean_container_registry" style="stroke:#1A83AF;stroke-width:2.0;"/><polygon fill="#1A83AF" points="133.07,206.41,128.9476,197.4654,129.3133,203.1104,123.6683,203.4761,133.07,206.41" style="stroke:#1A83AF;stroke-width:2.0;"/></g><!--link digitalocean_team to digitalocean_container_registry_repository--><g id="link_digitalocean_team_digitalocean_container_registry_repository"><path codeLine="33" d="M259.49,47.18 C285.25,59.91 314.21,79.36 329,106.79 C337.58,122.71 348.01,192.72 328,246.37 C319.91,268.07 302.98,287.92 288.17,302.28 " fill="none" id="digitalocean_team-to-digitalocean_container_registry_repository" style="stroke:#1A83AF;stroke-width:2.0;"/><polygon fill="#1A83AF" points="285.05,305.18,294.332,301.887,288.6771,301.7385,288.8256,296.0836,285.05,305.18" style="stroke:#1A83AF;stroke-width:2.0;"/></g><!--link digitalocean_team to digitalocean_region--><g id="link_digitalocean_team_digitalocean_region"><path codeLine="34" d="M209,47.22 C209,62.49 209,83.92 209,100.53 " fill="none" id="digitalocean_team-to-digitalocean_region" style="stroke:#1A83AF;stroke-width:2.0;"/><polygon fill="#1A83AF" points="209,105.41,213,96.41,209,100.41,205,96.41,209,105.41" style="stroke:#1A83AF;stroke-width:2.0;"/></g><!--SRC=[lP31IiD048RlUOg5dWk9HTDUX5WeUYbYlOcKQNOsNPhiXjcffOhlRc9LrgHfxCNRil-tCz-_QorHO57oNXHOh91Su3RQb41GY8J8xgOsjoG6Ie4QnSrmPWtt0dCeKDnY_eAiKsWIZskTRWmw9owyw0RIJKPsQ-HXF1COLqLesAEcEJYNC9DURHaz6JbPZPLgaisXWv6CuYjiOPOaqXSIXg6C9asaTzN9tZ_4Gh-YYFnFcrl6bcPhnITrqh8cFCbMqU-yq_4UfDGc4vVUtSF1YGpIh_l56gJTrRI2tFbh72EXvNs9qrOhd8obYe_2TrrmMl-Sa3hJ3BbD4SmohLg0hfIMX9bsJ7ln5hp_ZQmEfNMQRVUZ6hMcAsMilEkiJsduD8YIyIYPFG-lpx0AZhcSCojew_xZyyucFPCEHJy0]--></g></svg>

<svg xmlns="http://www.w3.org/2000/svg" width="466" height="352" preserveAspectRatio="none" style="width:466px;height:352px"><rect width="304" height="39.789" x="7" y="206.58" fill="#3D176E" rx="2.5" ry="2.5" style="stroke:#000d19;stroke-width:.5"/><circle cx="22" cy="226.475" r="11" fill="#ADD1B2" style="stroke:#181818;stroke-width:1"/><path d="M24.969 232.115q-.578.297-1.219.438-.64.156-1.344.156-2.5 0-3.828-1.64-1.312-1.657-1.312-4.782t1.312-4.781q1.328-1.656 3.828-1.656.703 0 1.344.156.656.156 1.219.453v2.719q-.625-.578-1.219-.844-.594-.281-1.219-.281-1.343 0-2.031 1.078-.688 1.062-.688 3.156 0 2.094.688 3.172.688 1.062 2.031 1.062.625 0 1.219-.265.594-.281 1.219-.86v2.72Z"/><text x="41" y="232.36" fill="#D9B8FF" font-family="Helvetica" font-size="17" textLength="262">digitalocean_container_registry</text><rect width="397" height="39.789" x="62.5" y="306.37" fill="#3D176E" rx="2.5" ry="2.5" style="stroke:#000d19;stroke-width:.5"/><circle cx="77.5" cy="326.264" r="11" fill="#ADD1B2" style="stroke:#181818;stroke-width:1"/><path d="M80.469 331.905q-.578.297-1.219.438-.64.156-1.344.156-2.5 0-3.828-1.64-1.312-1.657-1.312-4.782t1.312-4.781q1.328-1.656 3.828-1.656.703 0 1.344.156.656.156 1.219.453v2.719q-.625-.579-1.219-.844-.594-.281-1.219-.281-1.344 0-2.031 1.078-.688 1.062-.688 3.156 0 2.094.688 3.172.688 1.062 2.031 1.062.625 0 1.219-.265.594-.281 1.219-.86v2.72Z"/><text x="96.5" y="332.15" fill="#D9B8FF" font-family="Helvetica" font-size="17" textLength="355">digitalocean_container_registry_repository</text><rect width="205" height="39.789" x="106.5" y="106.79" fill="#3D176E" rx="2.5" ry="2.5" style="stroke:#000d19;stroke-width:.5"/><circle cx="121.5" cy="126.684" r="11" fill="#ADD1B2" style="stroke:#181818;stroke-width:1"/><path d="M124.469 132.325q-.578.297-1.219.438-.64.156-1.344.156-2.5 0-3.828-1.64-1.312-1.657-1.312-4.782t1.312-4.781q1.328-1.656 3.828-1.656.703 0 1.344.156.656.156 1.219.453v2.719q-.625-.579-1.219-.844-.594-.281-1.219-.281-1.344 0-2.031 1.078-.688 1.062-.688 3.156 0 2.094.688 3.172.688 1.062 2.031 1.062.625 0 1.219-.265.594-.281 1.219-.86v2.72Z"/><text x="140.5" y="132.57" fill="#D9B8FF" font-family="Helvetica" font-size="17" textLength="163">digitalocean_region</text><rect width="196" height="39.789" x="111" y="7" fill="#3D176E" rx="2.5" ry="2.5" style="stroke:#000d19;stroke-width:.5"/><circle cx="126" cy="26.895" r="11" fill="#ADD1B2" style="stroke:#181818;stroke-width:1"/><path d="M128.969 32.535q-.578.297-1.219.438-.64.156-1.344.156-2.5 0-3.828-1.64-1.312-1.657-1.312-4.782t1.312-4.781q1.328-1.656 3.828-1.656.703 0 1.344.156.656.156 1.219.453v2.719q-.625-.578-1.219-.844-.594-.281-1.219-.281-1.344 0-2.031 1.078-.688 1.062-.688 3.156 0 2.094.688 3.172.688 1.062 2.031 1.062.625 0 1.219-.265.594-.281 1.219-.86v2.72Z"/><text x="145" y="32.78" fill="#D9B8FF" font-family="Helvetica" font-size="17" textLength="154">digitalocean_team</text><path fill="none" d="M179.15 246.8c16.49 15.8 39.86 38.21 57.41 55.04" style="stroke:#1a83af;stroke-width:2"/><path fill="#1A83AF" d="m239.89 304.99-3.739-9.112.126 5.656-5.656.126 9.269 3.33z" style="stroke:#1a83af;stroke-width:2"/><path fill="none" d="M199.12 147.01c-7.94 15.53-19.15 37.45-27.7 54.18" style="stroke:#1a83af;stroke-width:2"/><path fill="#1A83AF" d="m168.86 205.2 7.658-6.193-5.382 1.741-1.74-5.382-.536 9.834z" style="stroke:#1a83af;stroke-width:2"/><path fill="none" d="M158.51 47.18C132.75 59.91 103.79 79.36 89 106.79c-18.32 33.98 14.27 72.28 40.86 95.95" style="stroke:#1a83af;stroke-width:2"/><path fill="#1A83AF" d="m133.07 206.41-4.122-8.945.365 5.645-5.645.366 9.402 2.934z" style="stroke:#1a83af;stroke-width:2"/><path fill="none" d="M259.49 47.18c25.76 12.73 54.72 32.18 69.51 59.61 8.58 15.92 19.01 85.93-1 139.58-8.09 21.7-25.02 41.55-39.83 55.91" style="stroke:#1a83af;stroke-width:2"/><path fill="#1A83AF" d="m285.05 305.18 9.282-3.293-5.655-.149.149-5.654-3.776 9.096z" style="stroke:#1a83af;stroke-width:2"/><path fill="none" d="M209 47.22v53.31" style="stroke:#1a83af;stroke-width:2"/><path fill="#1A83AF" d="m209 105.41 4-9-4 4-4-4 4 9z" style="stroke:#1a83af;stroke-width:2"/></svg>
